X: 11
T: Teetotaller's, The
Z: Stuart Morison
S: https://thesession.org/tunes/114#setting53702
R: reel
M: 4/4
L: 1/8
K: Gmaj
|:G2GF GABc|dBge dBAc|BEED EFGA|BGAF GFED|
DGGF GABc|dBge dBAc|BEED EFGA|1 BGAF G3 D/E/F :|2 BGAF G2GA||
|:Beed e2ef|geaf gfed|Addc d2de|fdaf gfed|
Beed e2ef|geaf gfed|BEED EFGA|1 BGAF G2GA:|2 BGAF GFED||

%-------------------- TUNE SEPARATOR --------------------%

